svg/lock.svg

<svg height="1024" width="768" xmlns="http://www.w3.org/2000/svg">
  <path d="M704 448c-32 0-64 0-64 0s0-64 0-192-128-256-256-256-256 128-256 256 0 192 0 192-32 0-64 0-64 32-64 64 0 416 0 448 32 64 64 64 608 0 640 0 64-32 64-64 0-416 0-448-32-64-64-64z m-192 128h-384v64h384v64h-384v64h384v64h-384v64h384v64h-448v-448h448v64z m0-128h-256s0-128 0-192 64-128 128-128 128 64 128 128 0 192 0 192z" />
</svg>

<svg height="1024" width="768" xmlns="http://www.w3.org/2000/svg">
  <path d="M704 448h-64V256c0 0 0-256-256-256S128 256 128 256v192H64c0 0-64 0-64 64v448c0 64 64 64 64 64h640c0 0 64 0 64-64V512C768 448 704 448 704 448zM512 576H128v64h384v64H128v64h384v64H128v64h384v64H64V512h448V576zM512 448H256V256c0 0 0-128 128-128s128 128 128 128V448z" />
</svg>
